!!!OTL: ZU WESEL AUF DER SCHANZ
!!!ARE: Europa, Mitteleuropa, Deutschland, Westfalen
!!!SCT: E1380
!!!YEM: Copyright 1995, estate of Helmut Schaffrath.
**kern
*ICvox
*Ivox
*M2/4
*k[b-e-a-]
*E-:
{8b-
=1
8g
8g
8g
8g
=2
4.g}
{8f
=3
8g
8f
8g
8a-
=4
8g
8f
8r}
{8f
=5
8f
8f
8f
8f
=6
4.f}
{8g
=7
8a-
8g
8a-
8b-
=8
8a-
8g
8r}
{8b-
=9
8cc
8b-
8cc
8dd
=10
8ee-
16dd
16cc
8b-}
{8a-
=11
4g
4f
=12
4e-
8r}
==
!!!AGN: Staende -, Soldaten -, Kriegs - Lied
!!!ONB: ESAC (Essen Associative Code) Database: ERK3
!!!AMT: simple duple
!!!AIN: vox
!!!EED: Helmut Schaffrath
!!!EEV: 1.0
*-
